X:1
T:Title
%%score ( 1 2 ) ( 3 4 )
L:1/8
Q:1/4=108
M:4/4
K:E
V:1 treble nm="Midi_20"
V:2 treble 
V:3 bass nm="Midi_20"
V:4 bass 
V:1
"^Bishopgarth (87. 87. D.)""^For My sake and the Gospel's, go""^Edward Henry Bickersteth\n(1825-1906)" B,2 | %1
w: |
w: |
w: |
w: |
 G2 G2 G2 G2 | A3 G F2 F2 | B2 c2 G2 (FE) | F4"^Sir Arthur Sullivan\n(1842-1900)" E2 || B,2 | %6
w: |||||
w: |||||
w: |||||
w: |||||
 G2 G2 G2 G2 | ^A3 G F2 F2 | B2 d2 B2 (^AG) | ^A4 B2 || B2 | e3 d c2 B2 | A2 c2 B2 A2 | %13
w: ||* * * the *||They|preach His birth, His|life, His Cross, The|
w: ||* * * sal\- *||As|near- er draws the|day of doom, While|
w: ||* * * re\- *||Their|snow- white robes are|washed in blood, Their|
w: ||* * * and *||O|Life, Light, Love, the|great I AM Tri-|
 G2 B2 A2 (GF) | E4 D2 || B,2 | G2 G2 G2 G2 | A3 G F2 F2 | B2 c2 G2 (FE) | F4 E2 |] %20
w: love of His a\- *|tone- ment|For|whom they count *|world but loss, His|Eas- ter, His en *|throne- ment.|
w: still the bat- tle *|ra- ges,|The|heaven- ly * *|through the gloom, Breaks|on the night of *|ag- es.|
w: gol- den harps are *|ring- ing;|Earth|and the * *|dise of God One|tri- umph song are *|sing- ing.|
w: une, who chang- est *|ne- ver,|The|throne of God *|of the Lamb Is|Thine, and Thine for *|e- ver.|
V:2
 B,2 | E2 E2 E2 E2 | D3 D D2 D2 | E2 E2 E2 (FE) | D4 E2 || B,2 | E2 E2 E2 E2 | E3 E C2 F2 | %8
w: "For|My sake and~ *|Gos- pel's, go And|tell re- demp- tion's *|sto- ry";|His|her- alds an\- *|"Be it so, And|
w: Hark!|hark! the trump~ *|ju- bi- lee Pro-|claims to ev'\- ry *|na- tion,|From|pole to pole, *|land and sea, Glad|
w: Still|on and on~ *|an- thems spread, Of|hal- le- lu- jah *|voi- ces;|In|con- cert with *|ho- ly dead, The|
w: He|comes whose ad\-~ *|trum- pet drowns The|last of time's e\- *|van- gels,|Im-|ma- nuel, crowned~~ *|ma- ny crowns, The|
 F2 ^^F2 G2 E2 | E4 D2 || D2 | E2 E2 E2 E2 | E2 E2 D2 F2 | E2 E2 E2 C2 | B,4 B,2 || B,2 | %16
w: Thine, Lord all *|glo- ry!"|||||||
w: ti- dings of *|va- tion;|||||||
w: war- rior Church~~ *|joi- ces;|||||||
w: Lord of saints *|an- gels.|||||||
 E2 E2 E2 E2 | D3 D D2 D2 | E2 E2 E2 (FE) | D4 E2 |] %20
w: ||||
w: ||||
w: ||||
w: ||||
V:3
 B,,2 | B,2 B,2 B,2 (B,G,) | F,3 F, B,2 B,2 | E,2 C2 B,2 ^A,2 | =A,4 G,2 || B,,2 | %6
w: |* * * the *|||||
w: |* * * of *|||||
w: |* * * the *|||||
w: |* * * vent\- *|||||
 B,2 B,2 B,2 B,2 | C3 B, ^A,2 A,2 | B,2 B,2 B,2 C2 | C4 B,2 || B,2 | B,3 B, E2 B,2 | %12
w: ||||||
w: ||||||
w: ||||||
w: ||||||
 C2 A,2 F,2 B,2 | B,2 =D2 C2 (B,A,) | G,4 F,2 || B,,2 | B,2 B,2 B,2 (B,G,) | F,3 F, B,2 B,2 | %18
w: ||||* * * the *||
w: ||||* * Day- spring *||
w: ||||* * Pa- ra\- *||
w: ||||* * * and *||
 E,2 C2 B,2 ^A,2 | =A,4 G,2 |] %20
w: ||
w: ||
w: ||
w: ||
V:4
 B,,2 | E,2 G,2 B,2 (G,E,) | B,,3 B,, B,,2 A,,2 | G,,2 A,,2 B,,2 C,2 | B,,4 E,2 || B,,2 | %6
w: ||||||
w: ||||||
w: ||||||
w: ||||||
 E,2 G,2 B,2 (G,E,) | C,3 C, F,2 E,2 | D,2 D,2 E,2 C,2 | F,4 B,,2 || (B,=A,) | G,3 G, G,2 G,2 | %12
w: * * * swer, *||||||
w: * * * by *||||||
w: * * * the *||||||
w: * * * with *||||||
 F,2 F,2 B,,2 D,2 | E,2 G,,2 A,,2 A,,2 | B,,4 B,,2 || B,,2 | E,2 G,2 B,2 (G,E,) | %17
w: |||||
w: |||||
w: |||||
w: |||||
 B,,3 B,, B,,2 A,,2 | G,,2 A,,2 B,,2 C,2 | B,,4 E,2 |] %20
w: |||
w: |||
w: |||
w: |||

